X: 3352
T:Gan Ainm
R:jig
M:6/8
L:1/8
K:D
DFA d2e|fdB BAF|AFA dAF|~E3 GFE|!
DFA d2e|fdB BAF|AFA dAF|DED D3:|!
|:dfa afd|gfg fef|dfa afd|cde ecA|!
dfa afd|gfg fef|BdB AFA|DED D3:|!
